images/icons/tumblr.svg

<svg fill="none" height="24" viewBox="0 0 24 24" width="24" xmlns="http://www.w3.org/2000/svg"><path d="m18.8949 22.5141c-.6259.6796-2.3012 1.4859-4.4828 1.4859-5.55981 0-6.76566-4.1625-6.76566-6.5906v-6.75h-2.18619c-.25314 0-.46025-.211-.46025-.4688v-3.18748c0-.3375.20711-.6375.52008-.75 2.85355-1.02187 3.75104-3.5625 3.87991-5.489058.03682-.515625.29916-.764062.74101-.764062h3.2632c.2531 0 .4602.210938.4602.46875v5.4h3.8201c.2531 0 .4602.20625.4602.46406v3.82969c0 .2578-.2071.4688-.4602.4688h-3.8385v6.2437c0 1.6031 1.0908 2.5125 3.1297 1.6781.2209-.089.4142-.15.5845-.1031.1611.0422.267.1594.3406.3703l1.0126 3.0141c.0828.2343.1518.4968-.0185.6797z" fill="#fff"/></svg>

<svg width="24" height="24" viewBox="0 0 24 24" fill="none" xmlns="http://www.w3.org/2000/svg">
<path d="M18.8949 22.5141C18.269 23.1937 16.5937 24 14.4121 24C8.85229 24 7.64644 19.8375 7.64644 17.4094V10.6594H5.46025C5.20711 10.6594 5 10.4484 5 10.1906V7.00312C5 6.66562 5.20711 6.36562 5.52008 6.25312C8.37363 5.23125 9.27112 2.69062 9.39999 0.764062C9.43681 0.248437 9.69915 0 10.141 0H13.4042C13.6573 0 13.8644 0.210938 13.8644 0.46875V5.86875H17.6845C17.9376 5.86875 18.1447 6.075 18.1447 6.33281V10.1625C18.1447 10.4203 17.9376 10.6313 17.6845 10.6313H13.846V16.875C13.846 18.4781 14.9368 19.3875 16.9757 18.5531C17.1966 18.4641 17.3899 18.4031 17.5602 18.45C17.7213 18.4922 17.8272 18.6094 17.9008 18.8203L18.9134 21.8344C18.9962 22.0687 19.0652 22.3312 18.8949 22.5141Z" fill="white"/>
</svg>
